icons/docsify-dark.svg

<svg width="256" height="256" viewBox="0 0 256 256" fill="none" xmlns="http://www.w3.org/2000/svg">
<rect width="256" height="256" rx="60" fill="#282828"/>
<path d="M216 149.5C216 101.175 176.825 62 128.5 62C80.1751 62 41 101.175 41 149.5C41 197.825 82.0441 193.769 130.369 193.769C178.694 193.769 216 197.825 216 149.5Z" fill="#2ECE53"/>
<path d="M216 149.5C216 101.175 176.825 62 128.5 62C80.1751 62 41 101.175 41 149.5C41 197.825 82.0441 193.769 130.369 193.769C178.694 193.769 216 197.825 216 149.5Z" stroke="#0E1320" stroke-width="4"/>
<path d="M98.839 127.927C104.572 127.927 109.22 123.279 109.22 117.545C109.22 111.812 104.572 107.164 98.839 107.164C93.1055 107.164 88.4576 111.812 88.4576 117.545C88.4576 123.279 93.1055 127.927 98.839 127.927Z" fill="black"/>
<path d="M164.093 127.927C169.827 127.927 174.475 123.279 174.475 117.545C174.475 111.812 169.827 107.164 164.093 107.164C158.36 107.164 153.712 111.812 153.712 117.545C153.712 123.279 158.36 127.927 164.093 127.927Z" fill="black"/>
<path d="M61.7627 120.511C63.4008 120.511 64.7288 119.183 64.7288 117.545C64.7288 115.907 63.4008 114.579 61.7627 114.579C60.1245 114.579 58.7966 115.907 58.7966 117.545C58.7966 119.183 60.1245 120.511 61.7627 120.511Z" fill="white"/>
<path fill-rule="evenodd" clip-rule="evenodd" d="M99.9189 83.7893C100.638 83.4206 100.781 82.6331 100.219 82.0092L98.2532 79.8256C97.7 79.2113 96.6503 79.0166 95.937 79.3834C95.937 79.3834 90.2263 82.1934 85.3781 85.6106C80.53 89.0279 80.5506 89.1311 78.6627 90.8309C73.4132 95.5576 65.0391 107.307 65.0391 107.307C64.569 107.957 64.6279 108.972 65.1896 109.596L67.1557 111.78C67.7089 112.394 68.5144 112.342 68.9694 111.653C68.9694 111.653 72.4394 106.195 76.5817 101.392C80.7241 96.5883 79.201 98.3439 82.1745 95.1615C86.5557 90.4725 99.9189 83.7893 99.9189 83.7893Z" fill="white"/>
<path fill-rule="evenodd" clip-rule="evenodd" d="M129.242 177.32C143.575 177.32 155.195 165.7 155.195 151.366C155.195 137.032 144.352 144.925 130.018 144.925C115.685 144.925 103.288 137.032 103.288 151.366C103.288 165.7 114.908 177.32 129.242 177.32Z" fill="black"/>
</svg>

<svg xmlns="http://www.w3.org/2000/svg" width="256" height="256" fill="none"><rect width="256" height="256" fill="#282828" rx="60"/><path fill="#2ECE53" d="M216 149.5c0-48.325-39.175-87.5-87.5-87.5S41 101.175 41 149.5s41.044 44.269 89.369 44.269S216 197.825 216 149.5"/><path stroke="#0E1320" stroke-width="4" d="M216 149.5c0-48.325-39.175-87.5-87.5-87.5S41 101.175 41 149.5s41.044 44.269 89.369 44.269S216 197.825 216 149.5Z"/><path fill="#000" d="M98.839 127.927c5.733 0 10.381-4.648 10.381-10.382 0-5.733-4.648-10.381-10.381-10.381s-10.381 4.648-10.381 10.381 4.648 10.382 10.381 10.382m65.254 0c5.734 0 10.382-4.648 10.382-10.382 0-5.733-4.648-10.381-10.382-10.381-5.733 0-10.381 4.648-10.381 10.381s4.648 10.382 10.381 10.382"/><path fill="#fff" d="M61.763 120.511a2.966 2.966 0 1 0 0-5.932 2.966 2.966 0 0 0 0 5.932"/><path fill="#fff" fill-rule="evenodd" d="M99.919 83.79c.719-.37.862-1.157.3-1.78l-1.966-2.184c-.553-.615-1.603-.81-2.316-.443 0 0-5.71 2.81-10.559 6.228s-4.827 3.52-6.715 5.22c-5.25 4.727-13.624 16.476-13.624 16.476-.47.65-.411 1.665.15 2.289l1.967 2.184c.553.614 1.358.562 1.813-.127 0 0 3.47-5.458 7.613-10.261 4.142-4.804 2.619-3.048 5.593-6.23 4.38-4.69 17.744-11.373 17.744-11.373" clip-rule="evenodd"/><path fill="#000" fill-rule="evenodd" d="M129.242 177.32c14.333 0 25.953-11.62 25.953-25.954s-10.843-6.441-25.177-6.441-26.73-7.893-26.73 6.441 11.62 25.954 25.954 25.954" clip-rule="evenodd"/></svg>
